!!!!SEGMENT: pl-wtm--r-693-m--005_moniuszko-stanislaw--sonety-krymskie-noc.krn
!!!cenid: 18xx:2936
!!!COM: Moniuszko, Stanisław
!!!COM-rismid: pe30008351
!!!CDT: 1819/05/05-1872/06/04
!!!CNT: Polish
!!!GTL: Sonety krymskie
!!!OTL: Noc
!!!PDT:
!!!AGN: Secular; Sonnet
!!!SMS-siglum: PL-Wtm
!!!SMS-shelfmark: R 693/M
!!!SMS-shelfwork: 005 G
!!!SMS-variant:
!!!SMS-altvar:
!!!NIFC-rismid: 1001096154
!!!URL-scan: http://repozytorium.nifc.pl/skany/pl-wtm-nut--r693m
!!!ONB-nifc: UWAGA: zbiór zawiera: 1. Cisza morska, 2. Żegluga, 3. Burza, 4. Ruina, 5. Noc, 6. Hymn, 7. Pielgrzym, 8. Epilog
**kern	**text	**kern	**text	**text	**text	**kern	**text	**kern	**text	**text	**text	**text	**kern	**text	**kern	**text	**text	**text	**kern	**text	**kern	**text	**text	**text	**text	**dynam
*group4	*	*group4	*group4	*group4	*group4	*group3	*	*group3	*group3	*group3	*group3	*group3	*group2	*	*group2	*group3	*group2	*group2	*group1	*	*group1	*group1	*group1	*group1	*group1	*group1
*part8	*	*part7	*part7	*part7	*part7	*part6	*	*part5	*part5	*part5	*part5	*part5	*part4	*	*part3	*part3	*part3	*part3	*part2	*	*part1	*part1	*part1	*part1	*part1	*part1
*staff8	*	*staff7	*staff7	*staff7	*staff7	*staff6	*	*staff5	*staff5	*staff5	*staff5	*staff5	*staff4	*	*staff3	*staff3	*staff3	*staff3	*staff2	*	*staff1	*staff1	*staff1	*staff1	*staff1	*
*Iempty	*	*Iempty	*	*	*	*Iempty	*	*Itenor	*	*	*	*	*Iempty	*	*Ialto	*	*	*	*Iempty	*	*Isoprn	*	*	*	*	*
*	*	*I"[Bassi]	*	*	*	*	*	*I"[Tenori]	*	*	*	*	*	*	*I"[Alti]	*	*	*	*	*	*I"[Soprani]	*	*	*	*	*
*clefF4	*	*clefF4	*	*	*	*clefG2	*	*clefG2	*	*	*	*	*clefG2	*	*clefG2	*	*	*	*clefG2	*	*clefG2	*	*	*	*	*
*	*	*	*	*	*	*ITrd8c12	*	*ITrd8c12	*	*	*	*	*	*	*	*	*	*	*	*	*	*	*	*	*	*
*>[A,B,B1,B,B2,C]	*	*>[A,B,B1,B,B2,C]	*	*	*	*>[A,B,B1,B,B2,C]	*	*>[A,B,B1,B,B2,C]	*	*	*	*	*>[A,B,B1,B,B2,C]	*	*>[A,B,B1,B,B2,C]	*	*	*	*>[A,B,B1,B,B2,C]	*	*>[A,B,B1,B,B2,C]	*	*	*	*	*
*k[b-e-a-d-g-]	*	*k[b-e-a-d-g-]	*	*	*	*k[b-e-a-d-g-]	*	*k[b-e-a-d-g-]	*	*	*	*	*k[b-e-a-d-g-]	*	*k[b-e-a-d-g-]	*	*	*	*k[b-e-a-d-g-]	*	*k[b-e-a-d-g-]	*	*	*	*	*
*D-:	*	*D-:	*	*	*	*D-:	*	*D-:	*	*	*	*	*D-:	*	*D-:	*	*	*	*D-:	*	*D-:	*	*	*	*	*
*M6/8	*	*M6/8	*	*	*	*M6/8	*	*M6/8	*	*	*	*	*M6/8	*	*M6/8	*	*	*	*M6/8	*	*M6/8	*	*	*	*	*
=1	=1	=1	=1	=1	=1	=1	=1	=1	=1	=1	=1	=1	=1	=1	=1	=1	=1	=1	=1	=1	=1	=1	=1	=1	=1	=1
!!!OMD: Andantino.
*>A	*	*>A	*	*	*	*>A	*	*>A	*	*	*	*	*>A	*	*>A	*	*	*	*>A	*	*>A	*	*	*	*	*
!	!	!	!	!	!	!	!	!	!	!	!	!	!	!	!	!	!	!	!	!	!LO:TX:t=P:problem:zgodnie z prośbą E.Z. wpisujemy dodatkowe pięciolinie, ale tekst niemiecki umieszczamy przy górnej	!	!	!	!	!
!	!	!LO:TX:a:t=3.	!	!	!	!	!	!LO:TX:a:t=3.	!	!	!	!	!	!	!LO:TX:a:t=3.	!	!	!	!	!	!LO:TX:a:t=3.	!	!	!	!	!
2.ryy	.	2.r	.	.	.	2.ryy	.	2.r	.	.	.	.	2.ryy	.	2.r	.	.	.	2.ryy	.	2.r	.	.	.	.	.
=2	=2	=2	=2	=2	=2	=2	=2	=2	=2	=2	=2	=2	=2	=2	=2	=2	=2	=2	=2	=2	=2	=2	=2	=2	=2	=2
2.ryy	.	2.r	.	.	.	2.ryy	.	2.r	.	.	.	.	2.ryy	.	2.r	.	.	.	2.ryy	.	2.r	.	.	.	.	.
=3	=3	=3	=3	=3	=3	=3	=3	=3	=3	=3	=3	=3	=3	=3	=3	=3	=3	=3	=3	=3	=3	=3	=3	=3	=3	=3
2.ryy	.	2.r	.	.	.	2.ryy	.	2.r	.	.	.	.	2.ryy	.	2.r	.	.	.	2.ryy	.	2.r	.	.	.	.	.
=4	=4	=4	=4	=4	=4	=4	=4	=4	=4	=4	=4	=4	=4	=4	=4	=4	=4	=4	=4	=4	=4	=4	=4	=4	=4	=4
2.ryy	.	4r	.	.	.	2.ryy	.	4r	.	.	.	.	2.ryy	.	4r	.	.	.	2.ryy	.	4r	.	.	.	.	.
.	.	8r	.	.	.	.	.	8r	.	.	.	.	.	.	8r	.	.	.	.	.	8r	.	.	.	.	.
.	.	4r	.	.	.	.	.	4r	.	.	.	.	.	.	4r	.	.	.	.	.	4r	.	.	.	.	.
*	*	*	*	*	*	*	*	*	*	*	*	*	*	*	*	*	*	*	*	*	*	*	*color:red	*	*	*
!	!	!LO:TX:t=P:problem:tekst niemiecki zapisany pod systemem BII:global	!	!	!	!	!	!	!	!	!	!	!	!	!	!	!	!	!	!	!LO:TX:t=P:problem:tekst niemiecki zapisany pod systemem SII:global	!	!	!	!	!LO:DY:a
.	.	8A-\	Roz-	.	Nun	.	.	8A-/	Roz-	.	.	.	.	.	8f/	Roz-	.	.	.	.	8a-/	Roz-	Dai	Nun	.	pp
=5	=5	=5	=5	=5	=5	=5	=5	=5	=5	=5	=5	=5	=5	=5	=5	=5	=5	=5	=5	=5	=5	=5	=5	=5	=5	=5
2.ryy	.	4A-\	-cho-	.	wan-	2.ryy	.	4d-\	-cho-	.	.	.	2.ryy	.	4f/	-cho-	.	.	2.ryy	.	4a-/	-cho-	mi-	wan-	.	.
.	.	8A-\	-dzą	.	-deln	.	.	8d-\	-dzą	.	.	.	.	.	8f/	-dzą	.	.	.	.	8a-/	-dzą	-na-	-deln	.	.
.	.	4A-\	się	.	heim	.	.	4c\	się	.	.	.	.	.	4g-/	się	.	.	.	.	4a-/	się	-re-	heim	.	.
.	.	8A-\	z dża-	.	die	.	.	8e-\	z dża-	.	.	.	.	.	8g-/	z dża-	.	.	.	.	8a-/	z dża-	-ti	die	.	.
=6	=6	=6	=6	=6	=6	=6	=6	=6	=6	=6	=6	=6	=6	=6	=6	=6	=6	=6	=6	=6	=6	=6	=6	=6	=6	=6
2.ryy	.	4.A-\	-mi-	.	From-	2.ryy	.	4.d-\	-mi-	.	.	.	2.ryy	.	4.f/	-mi-	.	.	2.ryy	.	4.a-/	-mi-	es-	From-	.	.
.	.	8A-\	-dów	.	-men,	.	.	8A-/	-dów	.	.	.	.	.	8f/	-dów	.	.	.	.	8a-/	-dów	-ce	-men	.	.
.	.	8r	.	.	.	.	.	8r	.	.	.	.	.	.	8r	.	.	.	.	.	8r	.	.	.	.	.
*	*	*	*	*color:red	*	*	*	*	*	*	*	*	*	*	*	*	*	*	*	*	*	*	*	*	*	*
.	.	8A-\	po-	Vi-	die	.	.	8r	.	.	.	.	.	.	8r	.	.	.	.	.	8r	.	.	.	.	.
!!LO:LB:g=original
=7	=7	=7	=7	=7	=7	=7	=7	=7	=7	=7	=7	=7	=7	=7	=7	=7	=7	=7	=7	=7	=7	=7	=7	=7	=7	=7
!	!	!LO:N:vis=2	!	!	!	!	!	!	!	!	!	!	!	!	!	!	!	!	!	!	!	!	!	!	!	!
2.ryy	.	[2.A-\	-bo-	-vo-	From-	2.ryy	.	2.r	.	.	.	.	2.ryy	.	2.r	.	.	.	2.ryy	.	2.r	.	.	.	.	.
=8	=8	=8	=8	=8	=8	=8	=8	=8	=8	=8	=8	=8	=8	=8	=8	=8	=8	=8	=8	=8	=8	=8	=8	=8	=8	=8
2.ryy	.	4.A-\]	.	.	.	2.ryy	.	4r	.	.	.	.	2.ryy	.	4r	.	.	.	2.ryy	.	4r	.	.	.	.	.
.	.	.	.	.	.	.	.	8r	.	.	.	.	.	.	8r	.	.	.	.	.	8r	.	.	.	.	.
.	.	8A-\	-żni	-ta,	-men,	.	.	4r	.	.	.	.	.	.	4r	.	.	.	.	.	4r	.	.	.	.	.
.	.	8r	.	.	.	.	.	.	.	.	.	.	.	.	.	.	.	.	.	.	.	.	.	.	.	.
.	.	8A-\	po-	di-	aŭs	.	.	8A-/	po-	.	.	.	.	.	8a-/	po-	.	.	.	.	8a-/	po-	di-	aus	.	.
=9	=9	=9	=9	=9	=9	=9	=9	=9	=9	=9	=9	=9	=9	=9	=9	=9	=9	=9	=9	=9	=9	=9	=9	=9	=9	=9
*	*	*^	*	*	*	*	*	*	*	*	*	*	*	*	*	*	*	*	*	*	*^	*	*	*	*	*
*cue	*	*	*	*	*	*	*cue	*	*	*	*	*	*	*cue	*	*	*	*	*	*cue	*	*	*	*	*	*	*	*
4A-\	der	4.A-\	4A-/	-bo-	-vo-	.	4d-\	.	4.d-\	-bo-	.	.	.	4f/	.	4.f/	-bo-	.	.	4a-/	der	4.a-/	4a-\	-bo-	-vo-	.	.	.
8A-\	Mo-	.	8A-/	.	.	.	8d-\	.	.	.	.	.	.	8f/	.	.	.	.	.	8a-/	Mo-	.	8a-\	.	.	.	.	.
4A-\	-sche-	4A-\	4A-/	-żni	-ta	.	4c\	.	4c\	-żni	.	.	.	4e-/	.	4e-/	-żni	.	.	4a-/	-sche-	4a-/	4a-\	-żni	-ta	.	.	.
8A-\	-en	8A-\	8A-/	mie-	la	.	8e-\	.	8e-\	mie-	.	.	.	8g-/	.	8g-/	mie-	.	.	8a-/	-en	8a-/	8a-\	mie-	la	.	.	.
*	*	*v	*v	*	*	*	*	*	*	*	*	*	*	*	*	*	*	*	*	*	*	*v	*v	*	*	*	*	*
=10	=10	=10	=10	=10	=10	=10	=10	=10	=10	=10	=10	=10	=10	=10	=10	=10	=10	=10	=10	=10	=10	=10	=10	=10	=10	=10
2.ryy	.	8A-\	-szkań-	schie-	Tho-	2.ryy	.	8d-\	-szkań-	.	.	.	2.ryy	.	8f/	-szkań-	.	.	2.ryy	.	8a-/	-szkań-	schie-	Tho-	.	.
.	.	8A-\	-ce	-ra	-ren,	.	.	8d-\	-ce	.	.	.	.	.	8f/	-ce	.	.	.	.	8a-/	-ce	-ra	-ren,	.	.
.	.	8r	.	.	.	.	.	8r	.	.	.	.	.	.	8r	.	.	.	.	.	8r	.	.	.	.	.
.	.	4r	.	.	.	.	.	4r	.	.	.	.	.	.	4r	.	.	.	.	.	4r	.	.	.	.	.
.	.	8r	.	.	.	.	.	8r	.	.	.	.	.	.	8r	.	.	.	.	.	8r	.	.	.	.	.
=11	=11	=11	=11	=11	=11	=11	=11	=11	=11	=11	=11	=11	=11	=11	=11	=11	=11	=11	=11	=11	=11	=11	=11	=11	=11	=11
2.ryy	.	2.r	.	.	.	2.ryy	.	2.r	.	.	.	.	2.ryy	.	2.r	.	.	.	2.ryy	.	2.r	.	.	.	.	.
!!LO:PB:g=original
=12	=12	=12	=12	=12	=12	=12	=12	=12	=12	=12	=12	=12	=12	=12	=12	=12	=12	=12	=12	=12	=12	=12	=12	=12	=12	=12
2.ryy	.	4r	.	.	.	2.ryy	.	4r	.	.	.	.	2.ryy	.	4r	.	.	.	2.ryy	.	4r	.	.	.	.	.
.	.	8r	.	.	.	.	.	8r	.	.	.	.	.	.	8r	.	.	.	.	.	8r	.	.	.	.	.
.	.	4r	.	.	.	.	.	4r	.	.	.	.	.	.	4r	.	.	.	.	.	4r	.	.	.	.	.
!	!	!	!	!	!	!	!	!LO:TX:t=P:problem:tekst niemiecki zapisany pod systemem AII:global	!	!	!	!	!	!	!	!	!	!	!	!	!	!	!	!	!	!
.	.	8A-\	i-	Si	In	.	.	8A-/	i-	.	In	.	.	.	8a-/	i-	.	.	.	.	8a-/	i-	Si	In	.	.
=13	=13	=13	=13	=13	=13	=13	=13	=13	=13	=13	=13	=13	=13	=13	=13	=13	=13	=13	=13	=13	=13	=13	=13	=13	=13	=13
2.ryy	.	4A-\	-za-	per-	stil-	2.ryy	.	4A-/	-za-	.	stil-	.	2.ryy	.	4f/	-za-	.	.	2.ryy	.	4a-/	-za-	per-	stil-	.	.
!	!	!LO:SIC:v:l:s=-do-:verse=2	!	!	!	!	!	!	!	!	!	!	!	!	!	!	!	!	!	!	!LO:SIC:v:l:s=-do-:2	!	!	!	!	!
.	.	8A-\	-nu	-da-	-ler	.	.	8d-\	-nu	.	-ler	.	.	.	8f/	-nu	.	.	.	.	8a-/	-nu	-da-	-ler	.	.
.	.	4A-\	od-	-no	Luft	.	.	8c\L	od-	.	Lŭft	.	.	.	4g-/	od-	.	.	.	.	4a-/	od-	-no	Lŭft	.	.
.	.	.	.	.	.	.	.	8B-\J	.	.	.	.	.	.	.	.	.	.	.	.	.	.	.	.	.	.
.	.	8A-\	-głos	i	ver-	.	.	8A-/	-głos	.	ver-	.	.	.	8e-/	-głos	.	.	.	.	8a-/	-głos	i	ver-	.	.
=14	=14	=14	=14	=14	=14	=14	=14	=14	=14	=14	=14	=14	=14	=14	=14	=14	=14	=14	=14	=14	=14	=14	=14	=14	=14	=14
2.ryy	.	[4.A-\	w ci-	can-	-klin-	2.ryy	.	2.f\	w ci-	.	-klin-	.	2.ryy	.	4.d-/	w ci-	.	.	2.ryy	.	4.a-/	w ci-	can-	-klin-	.	.
.	.	4A-\]	.	.	-gen	.	.	.	.	.	.	.	.	.	4d-/	-chym	.	.	.	.	4a-/	-chym	-ti	-gen	.	.
.	.	8A-\	-chym	-ti	-der	.	.	.	.	.	.	.	.	.	8r	.	.	.	.	.	8r	.	.	.	.	.
=15	=15	=15	=15	=15	=15	=15	=15	=15	=15	=15	=15	=15	=15	=15	=15	=15	=15	=15	=15	=15	=15	=15	=15	=15	=15	=15
2.ryy	.	[2.A-\	gu-	nel-	Mu-	2.ryy	.	4d-\	-chym	.	-gen	.	2.ryy	.	2.r	.	.	.	2.ryy	.	2.r	.	.	.	.	.
.	.	.	.	.	.	.	.	8r	.	.	.	.	.	.	.	.	.	.	.	.	.	.	.	.	.	.
.	.	.	.	.	.	.	.	4r	.	.	.	.	.	.	.	.	.	.	.	.	.	.	.	.	.	.
.	.	.	.	.	.	.	.	8r	.	.	.	.	.	.	.	.	.	.	.	.	.	.	.	.	.	.
!!LO:LB:g=original
=16	=16	=16	=16	=16	=16	=16	=16	=16	=16	=16	=16	=16	=16	=16	=16	=16	=16	=16	=16	=16	=16	=16	=16	=16	=16	=16
*	*	*^	*	*	*	*	*	*	*	*	*	*	*	*	*	*	*	*	*	*	*	*	*	*	*	*
2.ryy	.	4A-\]	4.ryy	.	.	.	2.ryy	.	2.r	.	.	.	.	2.ryy	.	2.r	.	.	.	2.ryy	.	2.r	.	.	.	.	.
.	.	8A-\	.	-bi	-la	-en-	.	.	.	.	.	.	.	.	.	.	.	.	.	.	.	.	.	.	.	.	.
!	!	!LO:TX:t=P:problem:stem.color=red	!	!	!	!	!	!	!	!	!	!	!	!	!	!	!	!	!	!	!	!	!	!	!	!	!
.	.	8A-/	4A-\	się	ta-	-zi-	.	.	.	.	.	.	.	.	.	.	.	.	.	.	.	.	.	.	.	.	.
.	.	8A-/@	.	.	-ci-	.	.	.	.	.	.	.	.	.	.	.	.	.	.	.	.	.	.	.	.	.	.
!	!	!LO:TX:t=P:problem:stem.color=red	!	!	!	!	!	!	!	!	!	!	!	!	!	!	!	!	!	!	!	!	!	!	!	!	!
.	.	8A-/	8A-\	je-	-ta	-nen	.	.	.	.	.	.	.	.	.	.	.	.	.	.	.	.	.	.	.	.	.
*	*	*v	*v	*	*	*	*	*	*	*	*	*	*	*	*	*	*	*	*	*	*	*	*	*	*	*	*
=17	=17	=17	=17	=17	=17	=17	=17	=17	=17	=17	=17	=17	=17	=17	=17	=17	=17	=17	=17	=17	=17	=17	=17	=17	=17	=17
2.ryy	.	2.A-\	-zio-	se-	Lie-	8F/	der	4F/	gu-	.	.	.	8f/	.	4f/	gu-	.	.	8a-/	der	4a-/	gu-	nel-	.	.	.
.	.	.	.	.	.	8F/	Mu-	.	.	.	.	.	8f/	.	.	.	.	.	8a-/	Mu-	.	.	.	.	.	.
.	.	.	.	.	.	8f\	-ez-	8f\	-bi	.	.	.	8a-/	.	8a-/	-bi	.	.	8dd-\	-ez-	8dd-\	-bi	-la	.	.	.
.	.	.	.	.	.	8g-\L	-zi-	8g-\L	się	.	.	.	8b-/L	.	8b-/L	się	.	.	4b-\	-zi-	8b-/	się	ta-	.	.	.
.	.	.	.	.	.	8f\J	.	8f\J	.	.	.	.	8a-/J	.	8a-/J	.	.	.	.	.	8b-/@	.	-ci-	.	.	.
.	.	.	.	.	.	8e-\	-nen	8e-\	je-	.	.	.	8g-/	.	8g-/	je-	.	.	8cc\	-nen	8cc/	je-	-ta	.	.	.
=18	=18	=18	=18	=18	=18	=18	=18	=18	=18	=18	=18	=18	=18	=18	=18	=18	=18	=18	=18	=18	=18	=18	=18	=18	=18	=18
2.ryy	.	4A-\	-rze	-ra!	-der!	2.ryy	.	(4d-\	-zio-	.	Lie-	.	2.ryy	.	(4f/	-zio-	.	.	2.ryy	.	(4dd-\	-zio-	se-	Lie-	.	.
.	.	8r	.	.	.	.	.	8A-/)	.	.	.	.	.	.	8g-/)	.	.	.	.	.	8a-/)	.	.	.	.	.
.	.	4r	.	.	.	.	.	4A-/	-rze	.	-der,	.	.	.	4a-/	-rze.	.	.	.	.	4a-/	-rze.	-ra.	-der,	.	.
.	.	8r	.	.	.	.	.	8r	.	.	.	.	.	.	8r	.	.	.	.	.	8r	.	.	.	.	.
=19!|:	=19!|:	=19!|:	=19!|:	=19!|:	=19!|:	=19!|:	=19!|:	=19!|:	=19!|:	=19!|:	=19!|:	=19!|:	=19!|:	=19!|:	=19!|:	=19!|:	=19!|:	=19!|:	=19!|:	=19!|:	=19!|:	=19!|:	=19!|:	=19!|:	=19!|:	=19!|:
*>B	*	*>B	*	*	*	*>B	*	*>B	*	*	*	*	*>B	*	*>B	*	*	*	*>B	*	*>B	*	*	*	*	*
2.ryy	.	2.r	.	.	.	8e-\	In	4e-\	Za-	Gia	.	.	2.ryy	.	2.r	.	.	.	8cc\	In	4cc\	Za-	Gia	.	.	.
.	.	.	.	.	.	8e-\	hol-	.	.	.	.	.	.	.	.	.	.	.	8cc\	hol-	.	.	.	.	.	.
.	.	.	.	.	.	8e-\	-der	8e-\	-wsty-	il	.	.	.	.	.	.	.	.	8cc\	-der	8cc\	-wsty-	il	.	.	.
.	.	.	.	.	.	8d-\L	Scham	8d-\	-dzi-	Ves-	.	.	.	.	.	.	.	.	8b-\L	Scham	8b-\	-dzi-	ves-	.	.	.
.	.	.	.	.	.	8e-\J	.	8e-\	-ło	-pe-	.	.	.	.	.	.	.	.	8cc\J	.	8cc\	-ło	-pe-	.	.	.
.	.	.	.	.	.	8d-\	er	8d-\	się	-ro	.	.	.	.	.	.	.	.	8b-\	er	8b-\	się	-ro	.	.	.
!!LO:PB:g=original
=20	=20	=20	=20	=20	=20	=20	=20	=20	=20	=20	=20	=20	=20	=20	=20	=20	=20	=20	=20	=20	=20	=20	=20	=20	=20	=20
2.ryy	.	2.r	.	.	.	2.ryy	.	4.d-\	li-	.	.	.	2.ryy	.	2.r	.	.	.	2.ryy	.	4.b-\	li-	mi-	-glüh-	.	.
.	.	.	.	.	.	.	.	4c\	-cem	.	.	.	.	.	.	.	.	.	.	.	8a-/	-cem	-te	-end	.	.
.	.	.	.	.	.	.	.	.	.	.	.	.	.	.	.	.	.	.	.	.	8r	.	.	.	.	.
!	!	!	!	!	!	!	!	!	!	!	!	!	!	!	!	!	!	!	!	!	!LO:N:cue	!	!	!	!	!
.	.	.	.	.	.	.	.	8r	.	.	.	.	.	.	.	.	.	.	.	.	8a-/	.	.	-Die	.	.
=21	=21	=21	=21	=21	=21	=21	=21	=21	=21	=21	=21	=21	=21	=21	=21	=21	=21	=21	=21	=21	=21	=21	=21	=21	=21	=21
*	*	*	*	*	*	*	*	*^	*	*	*	*	*	*	*	*	*	*	*	*	*	*	*	*	*	*
2.ryy	.	2.r	.	.	.	2.ryy	.	4c\	4ryy	ru-	.	.	.	2.ryy	.	2.r	.	.	.	2.ryy	.	4ee-\	ru-	mo-	Son-	.	.
!	!	!	!	!	!	!	!	!	!	!	!	!	!	!	!	!	!	!	!	!	!	!LO:SIC:v:l:s=-stra:verse=2	!	!	!	!	!
.	.	.	.	.	.	.	.	8c\	8ryy	-bi-	.	.	.	.	.	.	.	.	.	.	.	8ee-\	-bi-	-stro il	-ne	.	.
!	!	!	!	!	!	!	!	!LO:TX:t=P:problem:stem.color=red	!	!	!	!	!	!	!	!	!	!	!	!	!	!	!	!	!	!	!
.	.	.	.	.	.	.	.	8B-/	8B-\L	-no-	.	.	.	.	.	.	.	.	.	.	.	8dd-\L	-no-	vol-	steigt	.	.
!	!	!	!	!	!	!	!	!LO:TX:t=P:problem:stem.color=red	!	!	!	!	!	!	!	!	!	!	!	!	!	!	!	!	!	!	!
.	.	.	.	.	.	.	.	8c/	8c\J	.	.	.	.	.	.	.	.	.	.	.	.	8ee-\J	.	-to	.	.	.
.	.	.	.	.	.	.	.	8B-\	8ryy	-wem	.	.	.	.	.	.	.	.	.	.	.	8dd-\	-wem	Di	her-	.	.
*	*	*	*	*	*	*	*	*v	*v	*	*	*	*	*	*	*	*	*	*	*	*	*	*	*	*	*	*
=22	=22	=22	=22	=22	=22	=22	=22	=22	=22	=22	=22	=22	=22	=22	=22	=22	=22	=22	=22	=22	=22	=22	=22	=22	=22	=22
2.ryy	.	2.r	.	.	.	2.ryy	.	4.B-\	zo-	.	.	.	2.ryy	.	2.r	.	.	.	2.ryy	.	4.dd-\	zo-	ro-	-nie-	.	.
.	.	.	.	.	.	.	.	4A-/	-rze,	.	.	.	.	.	.	.	.	.	.	.	4cc\	-rze,	-sa	-der,	.	.
.	.	.	.	.	.	.	.	8r	.	.	.	.	.	.	.	.	.	.	.	.	8r	.	.	.	.	.
=23	=23	=23	=23	=23	=23	=23	=23	=23	=23	=23	=23	=23	=23	=23	=23	=23	=23	=23	=23	=23	=23	=23	=23	=23	=23	=23
2.ryy	.	4A-\	głos	all’-	.	2.ryy	.	4e-\	głos	.	In	.	2.ryy	.	4g-/	głos	.	.	2.ryy	.	4cc\	głos	all	In	.	.
.	.	8A-\	i-	-a-	.	.	.	8c\	i-	.	der	.	.	.	8g-/	i-	.	.	.	.	8ee-\	i-	a-	der	.	.
.	.	(4.B--\	-za-	-ma-	.	.	.	(4.d-\	-za-	.	Lŭft	.	.	.	[4.g-/	-za-	.	.	.	.	[4.gg-\	-za-	-ma-	Lŭft	.	.
!!LO:LB:g=original
=24	=24	=24	=24	=24	=24	=24	=24	=24	=24	=24	=24	=24	=24	=24	=24	=24	=24	=24	=24	=24	=24	=24	=24	=24	=24	=24
2.ryy	.	4A-\)	.	.	.	2.ryy	.	4e-\)	.	.	.	.	2.ryy	.	4g-/]	.	.	.	2.ryy	.	4gg-\]	.	.	.	.	.
.	.	8A-\	-nu-	-ta	.	.	.	8c\	-nu-	.	ver-	.	.	.	8g-/	-nu-	.	.	.	.	8ee-\	-nu	-ta	ver-	.	.
.	.	4.B--\	-tam	Spo-	.	.	.	4.d-\	-tam	.	-klin-	.	.	.	4.g-/	-tam	.	.	.	.	4.gg-\	tam	spo-	-klin-	.	.
=25	=25	=25	=25	=25	=25	=25	=25	=25	=25	=25	=25	=25	=25	=25	=25	=25	=25	=25	=25	=25	=25	=25	=25	=25	=25	=25
2.ryy	.	[4A-\	w ci-	-sa	.	2.ryy	.	[4e-\	w ci-	.	-gen	.	2.ryy	.	[4g-/	w ci-	.	.	2.ryy	.	[4cc\	w ci-	-sa	-gen	.	.
.	.	8A-\]	-chym	.	.	.	.	8e-\]	-chym	.	.	.	.	.	8g-/]	-chym	.	.	.	.	8cc\]	-chym	gia	.	.	.
.	.	4B--\	gu-	.	.	.	.	4e-\	gu-	.	der	.	.	.	4g-/	gu-	.	.	.	.	4dd-\	gu-	l’as-	der	.	.
.	.	8B--\	-bi	.	.	.	.	8e-\	-bi	.	Muez-	.	.	.	8g-/	-bi	.	.	.	.	8dd-\	-bi	-tro	Muez-	.	.
=26	=26	=26	=26	=26	=26	=26	=26	=26	=26	=26	=26	=26	=26	=26	=26	=26	=26	=26	=26	=26	=26	=26	=26	=26	=26	=26
2.ryy	.	4B-\	się	.	.	2.ryy	.	4e-\	się	Del-	-zi-	.	2.ryy	.	4g-/	się	.	.	2.ryy	.	4ddn\	się	del-	-zi-	.	.
.	.	8B-\	wie-	.	.	.	.	8e-\	wie-	-la	-nen	.	.	.	8g-/	wie-	.	.	.	.	8dd\	wie-	-la	-nen	.	.
.	.	4c-X\	-czo-	.	.	.	.	4e-\	-czo-	not-	Lie-	.	.	.	4g-/	-czo-	.	.	.	.	4ff\	-czo-	not-	Lie-	.	.
!	!	!	!	!	!	!	!	!LO:TX:a:t=ALO:TX:a:t=A:color=dodgerblue	!	!	!	!	!	!	!	!	!	!	!	!	!	!	!	!	!	!
.	.	8C-X/	-rze	.	.	.	.	8e-\	-rze	-te	-der,	.	.	.	8g-/	-rze	.	.	.	.	8ee-\	-rze	-te	-der,	.	.
=27	=27	=27	=27	=27	=27	=27	=27	=27	=27	=27	=27	=27	=27	=27	=27	=27	=27	=27	=27	=27	=27	=27	=27	=27	=27	=27
*	*	*	*	*	*	*	*	*^	*	*	*	*	*	*	*	*	*	*	*	*	*^	*	*	*	*	*
*	*	*	*	*	*	*	*	*	*^	*	*	*	*	*	*	*	*	*	*	*	*	*	*	*	*	*	*	*
!	!	!	!	!	!	!	!	!	!	!	!	!	!	!	!	!	!	!	!	!	!	!	!LO:TX:a:t=A:color=dodgerblue	!	!	!	!	!	!
2.ryy	.	(4.Cn/	sre	tor-	Schon	2.ryy	.	(4A-/	2.A-\	4ryy	sre-	L’as-	Schon	.	2.ryy	.	(4.e-/	sre-	.	.	2.ryy	.	(4.a-/	[2.a-\	sre-	tor-	Schon	.	.
.	.	.	.	.	.	.	.	8g-/	.	8g-\L	.	-tro	.	.	.	.	.	.	.	.	.	.	.	.	.	.	.	.	.
.	.	4.D-\)	.	.	.	.	.	8f/)	.	8f\J	.	Del-	naht,	.	.	.	4.f/)	.	.	.	.	.	4.b-/)	.	.	.	.	.	.
.	.	.	.	.	.	.	.	8e-/	.	4ryy	-brny	.	.	.	.	.	.	.	.	.	.	.	.	.	.	.	.	.	.
.	.	.	.	.	.	.	.	8d-/	.	.	król	-la	schon	.	.	.	.	.	.	.	.	.	.	.	.	.	.	.	.
*	*	*	*	*	*	*	*	*	*v	*v	*	*	*	*	*	*	*	*	*	*	*	*	*	*	*	*	*	*	*
!!LO:PB:g=original
=28	=28	=28	=28	=28	=28	=28	=28	=28	=28	=28	=28	=28	=28	=28	=28	=28	=28	=28	=28	=28	=28	=28	=28	=28	=28	=28	=28	=28
!	!	!LO:N:vis=4	!	!	!	!	!	!	!	!	!	!	!	!	!	!	!	!	!	!	!	!	!	!	!	!	!	!
2.ryy	.	4.E-\	brny	-na	naht	2.ryy	.	4.c/	[4.A-\	no-	not-	naht	.	2.ryy	.	4.g-/	-brny	na	naht	2.ryy	.	4.a-/]	4.cc\	-brny	-na	naht	.	.
.	.	4.F\	król	Gia	der	.	.	4.d-/	4A-\]	.	.	.	.	.	.	4.a-/	król	Gia	der	.	.	4.a-/	4.dd-\	król	gia	der	.	.
.	.	.	.	.	.	.	.	.	8d-\	-cy	-te	der	.	.	.	.	.	.	.	.	.	.	.	.	.	.	.	.
*	*	*	*	*	*	*	*	*v	*v	*	*	*	*	*	*	*	*	*	*	*	*	*v	*v	*	*	*	*	*
=29	=29	=29	=29	=29	=29	=29	=29	=29	=29	=29	=29	=29	=29	=29	=29	=29	=29	=29	=29	=29	=29	=29	=29	=29	=29	=29
2.ryy	.	(4.G-\	no-	l’as-	blei-	2.ryy	.	4d-\	dą-	all’-	blei-	.	2.ryy	.	(4.g-/	no-	l’as-	blei-	2.ryy	.	((4.b-\	no-	l’as-	blei-	.	.
.	.	.	.	.	.	.	.	8d-\	-ży,	-a-	-che	.	.	.	.	.	.	.	.	.	.	.	.	.	.	.
.	.	4.A-\	.	.	.	.	.	4d-\	dą-	-ma-	Lieb-	.	.	.	4.f/	.	.	.	.	.	4.cc-X\	.	.	.	.	.
.	.	.	.	.	.	.	.	8d-\	-ży	-ta	-ste,	.	.	.	.	.	.	.	.	.	.	.	.	.	.	.
=30	=30	=30	=30	=30	=30	=30	=30	=30	=30	=30	=30	=30	=30	=30	=30	=30	=30	=30	=30	=30	=30	=30	=30	=30	=30	=30
2.ryy	.	4.An\)	.	.	.	2.ryy	.	4.e-\	spo-	Spo-	naht	.	2.ryy	.	4.g-/)	.	.	.	2.ryy	.	4.ccn\)	.	.	.	.	.
.	.	4.B-\	-cy	-tro	-che	.	.	4.d-\	-cząć	-sa	der	.	.	.	4.g-/	-cy	-tro	-che	.	.	4.dd-\)	-cy	-tro	-che	.	.
=31	=31	=31	=31	=31	=31	=31	=31	=31	=31	=31	=31	=31	=31	=31	=31	=31	=31	=31	=31	=31	=31	=31	=31	=31	=31	=31
2.ryy	.	4.c-X\	dą-	del-	blei-	2.ryy	.	[4.e-\	dą-	tor-	blei-	.	2.ryy	.	4g-/	dą-	all	Lieb-	2.ryy	.	[4.ee-\	dą-	del-	Lieb-	.	.
.	.	.	.	.	.	.	.	.	.	.	.	.	.	.	8b--/	-ży	a-	-ste,	.	.	.	.	.	.	.	.
.	.	4.cn\	-ży	-la	-che	.	.	4e-\]	.	.	.	.	.	.	8a-/L	dą-	-ma-	blei-	.	.	4ee-\]	.	.	-ste,	.	.
.	.	.	.	.	.	.	.	.	.	.	.	.	.	.	8gn/J	.	.	.	.	.	.	.	.	.	.	.
.	.	.	.	.	.	.	.	8A-/	-ży	-na	-che	.	.	.	8g-X/	-ży	-ta	-che	.	.	8a-/	-ży	-la	der	.	.
!!LO:LB:g=original
=32	=32	=32	=32	=32	=32	=32	=32	=32	=32	=32	=32	=32	=32	=32	=32	=32	=32	=32	=32	=32	=32	=32	=32	=32	=32	=32
*	*	*	*	*	*	*	*	*	*	*	*	*	*	*	*	*	*	*	*	*	*^	*	*	*	*	*
!	!	!	!	!	!	!	!	!	!	!	!	!	!	!	!	!	!	!	!	!	!LO:TX:t=P:problem:stem.color=red	!	!	!	!	!	!
2.ryy	.	(4d-\	spo-	not-	Lieb-	2.ryy	.	8f\L	spo-	all’-	Lieb-	.	2.ryy	.	8f/L	spo-	spo-	Lieb-	2.ryy	.	8ff/L	(>8ff\L	dą-	not-	Lieb-	.	.
!	!	!	!	!	!	!	!	!	!	!	!	!	!	!	!	!	!	!	!	!	!LO:TX:t=P:problem:stem.color=red	!	!	!	!	!	!
.	.	.	.	.	.	.	.	16e-\L	.	.	.	.	.	.	8a-/J	.	.	.	.	.	16ee-/L	16ee-\L	.	.	.	.	.
!	!	!	!	!	!	!	!	!	!	!	!	!	!	!	!	!	!	!	!	!	!LO:TX:t=P:problem:stem.color=red	!	!	!	!	!	!
.	.	.	.	.	.	.	.	16d-\JJ	.	.	.	.	.	.	.	.	.	.	.	.	16dd-/JJ	16dd-\	.	.	.	.	.
!	!	!	!	!	!	!	!	!	!	!	!	!	!	!	!	!	!	!	!	!	!LO:TX:t=P:problem:stem.color=red	!	!	!	!	!	!
.	.	8D-\)	-cząć	-te	.	.	.	16c\LL	-cząć	-a-	-ste,	.	.	.	8a-/	-cząć	-sa	-ste,	.	.	16ee-/LL	16ee-\	.	-te	.	.	.
!	!	!	!	!	!	!	!	!	!	!	!	!	!	!	!	!	!	!	!	!	!LO:TX:t=P:problem:stem.color=red	!	!	!	!	!	!
.	.	.	.	.	.	.	.	16c-X\JJ	.	.	.	.	.	.	.	.	.	.	.	.	16ff/JJ	16ff\JJ)	.	.	.	.	.
.	.	4D-\	dą-	tor-	-ste,	.	.	(8B-/L	dą-	-ma-	den	.	.	.	(8g-/L	dą-	tor-	den	.	.	4gg-\	4ryy	.	tor-	-ste,	.	.
.	.	.	.	.	.	.	.	8A-/J	.	.	.	.	.	.	8a-/J	.	.	.	.	.	.	.	.	.	.	.	.
.	.	8G-\	-ży	-na	den	.	.	8G-/)	-ży	-ta	.	.	.	.	8b-/)	-ży	-na	.	.	.	8b-\	8ryy	-ży	-na	den	.	.
*	*	*	*	*	*	*	*	*	*	*	*	*	*	*	*	*	*	*	*	*	*v	*v	*	*	*	*	*
=33	=33	=33	=33	=33	=33	=33	=33	=33	=33	=33	=33	=33	=33	=33	=33	=33	=33	=33	=33	=33	=33	=33	=33	=33	=33	=33
2.ryy	.	8A-\L	spo-	all’-	sie	2.ryy	.	4A-/	spo-	all’-	sie	.	2.ryy	.	4f/	spo-	all’-	sie	2.ryy	.	8dd-\L	spo-	all’-	sie	.	.
.	.	8F\J	.	.	.	.	.	.	.	.	.	.	.	.	.	.	.	.	.	.	16ee-\L	.	.	.	.	.
.	.	.	.	.	.	.	.	.	.	.	.	.	.	.	.	.	.	.	.	.	16dd-\JJ	.	.	.	.	.
.	.	8D-\	-cząć	-a-	sich	.	.	8A-/	-cząć	-a-	sich	.	.	.	8a-/	-cząć	-a-	sich	.	.	16cc\LL	cząć	-a-	sich	.	.
.	.	.	.	.	.	.	.	.	.	.	.	.	.	.	.	.	.	.	.	.	16dd-\JJ	.	.	.	.	.
.	.	4BB-/	przy	-ma-	aus-	.	.	4B-/	przy	-ma-	aus-	.	.	.	8a-/L	przy	-ma-	aus-	.	.	4ee-\	przy	-ma-	aus-	.	.
.	.	.	.	.	.	.	.	.	.	.	.	.	.	.	8gn/J	.	.	.	.	.	.	.	.	.	.	.
.	.	8AA-/	ko-	-ta	-er-	.	.	8A-/	ko-	-ta	-er-	.	.	.	8g-X/	ko-	-ta	-er-	.	.	8a-/	ko-	-ta	-er-	.	.
=34	=34	=34	=34	=34	=34	=34	=34	=34	=34	=34	=34	=34	=34	=34	=34	=34	=34	=34	=34	=34	=34	=34	=34	=34	=34	=34
!LO:TX:a:t=1o	!	!	!	!	!	!	!	!	!	!	!	!	!	!	!	!	!	!	!	!	!	!	!	!	!	!
*>B1	*	*>B1	*	*	*	*>B1	*	*>B1	*	*	*	*	*>B1	*	*>B1	*	*	*	*>B1	*	*>B1	*	*	*	*	*
2.ryy	.	4.D-\	-chan-	Spo-	-ko-	2.ryy	.	[4.f\	-chan-	Spo-	-ko-	.	2.ryy	.	4.f/	-chan-	Spo-	-ko-	2.ryy	.	(4.a-/	-chan-	Spo-	-ko-	.	.
.	.	4A-\	-ce.	-sa	-ren.	.	.	8f\L]	.	.	.	.	.	.	4d-/	-ce	-sa.	-ren.	.	.	4dd-\)	-ce.	-sa!	-ren!	.	.
.	.	.	.	.	.	.	.	8e-\J	.	.	.	.	.	.	.	.	.	.	.	.	.	.	.	.	.	.
.	.	8r	.	.	.	.	.	8d-\	-ce.	-sa	-ren.	.	.	.	8r	.	.	.	.	.	8r	.	.	.	.	.
=35:|!	=35:|!	=35:|!	=35:|!	=35:|!	=35:|!	=35:|!	=35:|!	=35:|!	=35:|!	=35:|!	=35:|!	=35:|!	=35:|!	=35:|!	=35:|!	=35:|!	=35:|!	=35:|!	=35:|!	=35:|!	=35:|!	=35:|!	=35:|!	=35:|!	=35:|!	=35:|!
!LO:TX:a:t=2o	!	!	!	!	!	!	!	!	!	!	!	!	!	!	!	!	!	!	!	!	!	!	!	!	!	!
*>B2	*	*>B2	*	*	*	*>B2	*	*>B2	*	*	*	*	*>B2	*	*>B2	*	*	*	*>B2	*	*>B2	*	*	*	*	*
2.ryy	.	[2.D-\	chan-	.	ko	2.ryy	.	[2.d-\	chan-	Spo	ko-	.	2.ryy	.	[2.a-/	chan-	.	ko-	2.ryy	.	[2.ff\	chan-	Spo-	ko-	.	.
!!LO:PB:g=original
=36	=36	=36	=36	=36	=36	=36	=36	=36	=36	=36	=36	=36	=36	=36	=36	=36	=36	=36	=36	=36	=36	=36	=36	=36	=36	=36
*>C	*	*>C	*	*	*	*>C	*	*>C	*	*	*	*	*>C	*	*>C	*	*	*	*>C	*	*>C	*	*	*	*	*
2.ryy	.	2.D-\]	.	.	.	2.ryy	.	2.d-\]	.	.	.	.	2.ryy	.	2.a-/]	.	.	.	2.ryy	.	2.ff\]	.	.	.	.	.
=37	=37	=37	=37	=37	=37	=37	=37	=37	=37	=37	=37	=37	=37	=37	=37	=37	=37	=37	=37	=37	=37	=37	=37	=37	=37	=37
2.ryy	.	4D-\	-ce	sa!	.	2.ryy	.	4A-/	-ce	.	-ren.	.	2.ryy	.	4d-/	-ce.	.	-ren.	2.ryy	.	4f/	-ce	sa!	-ren.	.	.
.	.	8r	.	.	.	.	.	8r	.	.	.	.	.	.	8r	.	.	.	.	.	8r	.	.	.	.	.
.	.	4r	.	.	.	.	.	4r	.	.	.	.	.	.	4r	.	.	.	.	.	4r	.	.	.	.	.
.	.	8r	.	.	.	.	.	8r	.	.	.	.	.	.	8r	.	.	.	.	.	8r	.	.	.	.	.
=38	=38	=38	=38	=38	=38	=38	=38	=38	=38	=38	=38	=38	=38	=38	=38	=38	=38	=38	=38	=38	=38	=38	=38	=38	=38	=38
!	!	!LO:TX:a:t=7	!	!	!	!	!	!LO:TX:a:t=7	!	!	!	!	!	!	!LO:TX:a:t=7	!	!	!	!	!	!LO:TX:a:t=7	!	!	!	!	!
2.ryy	.	2.r	.	.	.	2.ryy	.	2.r	.	.	.	.	2.ryy	.	2.r	.	.	.	2.ryy	.	2.r	.	.	.	.	.
=39	=39	=39	=39	=39	=39	=39	=39	=39	=39	=39	=39	=39	=39	=39	=39	=39	=39	=39	=39	=39	=39	=39	=39	=39	=39	=39
2.ryy	.	2.r	.	.	.	2.ryy	.	2.r	.	.	.	.	2.ryy	.	2.r	.	.	.	2.ryy	.	2.r	.	.	.	.	.
=40	=40	=40	=40	=40	=40	=40	=40	=40	=40	=40	=40	=40	=40	=40	=40	=40	=40	=40	=40	=40	=40	=40	=40	=40	=40	=40
2.ryy	.	2.r	.	.	.	2.ryy	.	2.r	.	.	.	.	2.ryy	.	2.r	.	.	.	2.ryy	.	2.r	.	.	.	.	.
=41	=41	=41	=41	=41	=41	=41	=41	=41	=41	=41	=41	=41	=41	=41	=41	=41	=41	=41	=41	=41	=41	=41	=41	=41	=41	=41
2.ryy	.	2.r	.	.	.	2.ryy	.	2.r	.	.	.	.	2.ryy	.	2.r	.	.	.	2.ryy	.	2.r	.	.	.	.	.
=42	=42	=42	=42	=42	=42	=42	=42	=42	=42	=42	=42	=42	=42	=42	=42	=42	=42	=42	=42	=42	=42	=42	=42	=42	=42	=42
2.ryy	.	2.r	.	.	.	2.ryy	.	2.r	.	.	.	.	2.ryy	.	2.r	.	.	.	2.ryy	.	2.r	.	.	.	.	.
=43	=43	=43	=43	=43	=43	=43	=43	=43	=43	=43	=43	=43	=43	=43	=43	=43	=43	=43	=43	=43	=43	=43	=43	=43	=43	=43
2.ryy	.	2.r	.	.	.	2.ryy	.	2.r	.	.	.	.	2.ryy	.	2.r	.	.	.	2.ryy	.	2.r	.	.	.	.	.
=44	=44	=44	=44	=44	=44	=44	=44	=44	=44	=44	=44	=44	=44	=44	=44	=44	=44	=44	=44	=44	=44	=44	=44	=44	=44	=44
2.ryy	.	2.r	.	.	.	2.ryy	.	2.r	.	.	.	.	2.ryy	.	2.r	.	.	.	2.ryy	.	2.r	.	.	.	.	.
=45	=45	=45	=45	=45	=45	=45	=45	=45	=45	=45	=45	=45	=45	=45	=45	=45	=45	=45	=45	=45	=45	=45	=45	=45	=45	=45
!	!	!	!	!	!	!	!	!	!	!	!	!	!	!	!	!	!	!	!	!	!LO:TX:a:t=E:color=red	!	!	!	!	!
!	!	!LO:TX:a:t=1	!	!	!	!	!	!LO:TX:a:t=1	!	!	!	!	!	!	!LO:TX:a:t=1	!	!	!	!	!	!LO:TX:a:t=1	!	!	!	!	!
2.ryy	.	2.r	.	.	.	2.ryy	.	2.r	.	.	.	.	2.ryy	.	2.r	.	.	.	2.ryy	.	2.r	.	.	.	.	.
=46	=46	=46	=46	=46	=46	=46	=46	=46	=46	=46	=46	=46	=46	=46	=46	=46	=46	=46	=46	=46	=46	=46	=46	=46	=46	=46
2.ryy	.	2.r	.	.	.	2.ryy	.	4r	.	.	.	.	2.ryy	.	2.r	.	.	.	2.ryy	.	2.r	.	.	.	.	.
.	.	.	.	.	.	.	.	8r	.	.	.	.	.	.	.	.	.	.	.	.	.	.	.	.	.	.
.	.	.	.	.	.	.	.	4r	.	.	.	.	.	.	.	.	.	.	.	.	.	.	.	.	.	.
.	.	.	.	.	.	.	.	8A-/	W ha-	Gia	Es	.	.	.	.	.	.	.	.	.	.	.	.	.	.	.
=47	=47	=47	=47	=47	=47	=47	=47	=47	=47	=47	=47	=47	=47	=47	=47	=47	=47	=47	=47	=47	=47	=47	=47	=47	=47	=47
2.ryy	.	2.r	.	.	.	2.ryy	.	4A-/	-re-	nell	leuch-	.	2.ryy	.	2.r	.	.	.	2.ryy	.	2.r	.	.	.	.	.
.	.	.	.	.	.	.	.	8A-/	-mie	ha-	-ten	.	.	.	.	.	.	.	.	.	.	.	.	.	.	.
.	.	.	.	.	.	.	.	8d-\L	nie-	-rem	My-	.	.	.	.	.	.	.	.	.	.	.	.	.	.	.
.	.	.	.	.	.	.	.	8e-\J	.	.	.	.	.	.	.	.	.	.	.	.	.	.	.	.	.	.
.	.	.	.	.	.	.	.	8f\	-bios	Del	-ri-	.	.	.	.	.	.	.	.	.	.	.	.	.	.	.
!!LO:LB:g=original
=48	=48	=48	=48	=48	=48	=48	=48	=48	=48	=48	=48	=48	=48	=48	=48	=48	=48	=48	=48	=48	=48	=48	=48	=48	=48	=48
2.ryy	.	4r	.	.	.	2.ryy	.	2.f\	bły-	Cie-	-a-	.	2.ryy	.	4r	.	.	.	2.ryy	.	4r	.	.	.	.	.
.	.	8r	.	.	.	.	.	.	.	.	.	.	.	.	8r	.	.	.	.	.	8r	.	.	.	.	.
.	.	4r	.	.	.	.	.	.	.	.	.	.	.	.	4r	.	.	.	.	.	4r	.	.	.	.	.
*	*	*	*	*	*	*	*	*	*	*	*	*	*	*	*	*	*	*	*	*	*	*	*	*	*above	*
!	!	!	!	!	!	!	!	!	!	!	!	!	!	!	!	!	!	!	!	!	!LO:TX:t=P:problem:tekst rosyjski:https://polona.pl/item/krymskie-sonety,OTA2MDU0ODg/0/#info:metadata	!	!	!	!	!
!	!	!	!	!	!	!	!	!	!	!	!	!	!	!	!	!	!	!	!	!	!LO:SIC:v:l:s=тoл-:verse=4	!	!	!	!	!
.	.	8A-\	gwiazd	la	Es	.	.	.	.	.	.	.	.	.	8d-/	gwiazd	La	.	.	.	8a-/	gwiazd	La	Es	moл-	.
=49	=49	=49	=49	=49	=49	=49	=49	=49	=49	=49	=49	=49	=49	=49	=49	=49	=49	=49	=49	=49	=49	=49	=49	=49	=49	=49
2.ryy	.	(4A-\	wie-	stel-	leuch-	2.ryy	.	4d-\	-szczą	-li	-den	.	2.ryy	.	4.f/	wiecz-	stel-	.	2.ryy	.	4.a-/	wiecz-	Stel-	leuch-	-пы	.
.	.	8d-\)	.	.	.	.	.	8r	.	.	.	.	.	.	.	.	.	.	.	.	.	.	.	.	.	.
.	.	8c\L	-czne	.	-ten	.	.	4r	.	.	.	.	.	.	4g-/	-ne	-la	.	.	.	4a-/	-ne	-la	-ten	звѣздъ	.
.	.	8B-\J	.	-la	.	.	.	.	.	.	.	.	.	.	.	.	.	.	.	.	.	.	.	.	.	.
.	.	8A-\	ka-	-scin-	die	.	.	8r	.	.	.	.	.	.	8g-/	ka-	scin-	.	.	.	8a-/	ka-	scin-	Myr-	po-	.
=50	=50	=50	=50	=50	=50	=50	=50	=50	=50	=50	=50	=50	=50	=50	=50	=50	=50	=50	=50	=50	=50	=50	=50	=50	=50	=50
2.ryy	.	[2.A-\	-gań-	-til	Ster-	2.ryy	.	8r	.	.	.	.	2.ryy	.	4.f/	-gań-	-til-	.	2.ryy	.	4.a-/	-gań-	-til-	-ia-	-я-	.
.	.	.	.	.	.	.	.	8r	.	.	.	.	.	.	.	.	.	.	.	.	.	.	.	.	.	.
.	.	.	.	.	.	.	.	8A-/	w ha-	.	von	.	.	.	.	.	.	.	.	.	.	.	.	.	.	.
.	.	.	.	.	.	.	.	4A-/	-re-	.	Ster-	.	.	.	8a-/	-ce,	-la	.	.	.	8a-/	-ce,	-la	-den,	-ми	.
.	.	.	.	.	.	.	.	.	.	.	.	.	.	.	8r	.	.	.	.	.	8r	.	.	.	.	.
.	.	.	.	.	.	.	.	8d-\	-mie	.	-nen	.	.	.	8f/	w ha-	Gia	Myr	.	.	8a-/	w ha-	Nel	Myr	и	.
=51	=51	=51	=51	=51	=51	=51	=51	=51	=51	=51	=51	=51	=51	=51	=51	=51	=51	=51	=51	=51	=51	=51	=51	=51	=51	=51
2.ryy	.	2.A-\]	.	.	.	2.ryy	.	4d-\	nie-	.	auf	.	8f/	-ia-	4f/	-re-	nell’-	.	8a-/	ia-	4a-/	-re-	Cie-	.	мeж-	.
.	.	.	.	.	.	.	.	.	.	.	.	.	8f/	-den	.	.	.	.	8a-/	-den	.	.	.	.	.	.
.	.	.	.	.	.	.	.	8d-\	-bios	.	am	.	8f/	von	8f/	-mie	-ha-	.	8a-/	von	8a-/	-mie	-lo	.	-дy	.
.	.	.	.	.	.	.	.	4A-/	błysz-	.	Him-	.	4f/	Ster-	4f/	błysz-	-rem	.	8dd-\L	Ster-	8dd-\L	nie-	gia	.	ни-	.
.	.	.	.	.	.	.	.	.	.	.	.	.	.	.	.	.	.	.	8ee-\J	.	8ee-\J	.	.	.	-ми	.
.	.	.	.	.	.	.	.	8A-/	-czą	.	-mel	.	8a-/	-nen	8a-/	-czą	del	.	8ff\	-nen	8ff\	-bios	la	.	въ пpo-	.
!!LO:PB:g=original
=52	=52	=52	=52	=52	=52	=52	=52	=52	=52	=52	=52	=52	=52	=52	=52	=52	=52	=52	=52	=52	=52	=52	=52	=52	=52	=52
2.ryy	.	4A-\	ce,	.	-ne[n].	2.ryy	.	4A-/	wiecz-	cie-	auf	.	2.ryy	.	4f/	wiecz-	.	auf	2.ryy	.	[2.aa-\	gwiazd	Stel-	auf	-cтpaн-	.
.	.	8r	.	.	.	.	.	8A-/	-ne	-lo	am	.	.	.	8f/	-ne	.	am	.	.	.	.	.	.	.	.
.	.	4r	.	.	.	.	.	4A-/	błysz-	gia	Him-	.	.	.	4f/	błysz-	.	Him-	.	.	.	.	.	.	.	.
.	.	8r	.	.	.	.	.	8A-/	-czą	la	-mel,	.	.	.	8f/	-czą	.	-mel,	.	.	.	.	.	.	.	.
=53	=53	=53	=53	=53	=53	=53	=53	=53	=53	=53	=53	=53	=53	=53	=53	=53	=53	=53	=53	=53	=53	=53	=53	=53	=53	=53
2.ryy	.	2.r	.	.	.	2.ryy	.	(4A-/	gwiazd	stel-	aŭf	.	2.ryy	.	(4a-/	gwiazd	.	auf	2.ryy	.	4.aa-\_	.	.	.	.	.
.	.	.	.	.	.	.	.	8f\	.	.	.	.	.	.	8dd-\	.	.	.	.	.	.	.	.	.	.	.
.	.	.	.	.	.	.	.	8g-\L	.	-la	.	.	.	.	8b-/L	.	.	.	.	.	4aa-\]	.	.	.	-cтвѣ	.
.	.	.	.	.	.	.	.	8f\J)	.	.	.	.	.	.	8a-/J)	.	.	.	.	.	.	.	.	.	.	.
.	.	.	.	.	.	.	.	8e-\	ka-	scin-	am	.	.	.	8g-/	ka-	.	am	.	.	8cc\	ka-	-la	am	бeз-	.
=54	=54	=54	=54	=54	=54	=54	=54	=54	=54	=54	=54	=54	=54	=54	=54	=54	=54	=54	=54	=54	=54	=54	=54	=54	=54	=54
2.ryy	.	2.r	.	.	.	2.ryy	.	4.d-\	-gań-	-til-	Him-	.	2.ryy	.	4.f/	-gań-	.	Him-	2.ryy	.	4.dd-\	-gań-	ar-	Him-	-дoн-	.
.	.	.	.	.	.	.	.	4A-/	-ce	-la.	-mel,	.	.	.	4a-/	-ce	.	-mel,	.	.	4a-/	-ce	-de	-mel,	-нoмъ	.
.	.	.	.	.	.	.	.	8r	.	.	.	.	.	.	8r	.	.	.	.	.	8r	.	.	.	.	.
=55	=55	=55	=55	=55	=55	=55	=55	=55	=55	=55	=55	=55	=55	=55	=55	=55	=55	=55	=55	=55	=55	=55	=55	=55	=55	=55
8A-\	.	4A-\	-śród	.	.	8e-\	Gleich	4e-\	śród	na-	.	.	8g-/	.	4g-/	śród	.	-Gleich	8cc\	.	4cc\	śród	na-	-Gleich	Oб-	.
8A-\	.	.	.	.	.	8e-\	Lam-	.	.	.	Lam-	.	8g-/	.	.	.	.	Lam-	8cc\	.	.	.	.	Lam-	.	.
8A-\	.	8A-\	nich	.	.	8e-\	-pen	8e-\	nich	-vi-	.	.	8g-/	.	8g-/	nich	.	-pen	8cc\	.	8cc\	nich	-vi-	-pen	-лaкъ	.
4A-\	.	8A-\	po-	.	.	(8d-L\	des	8d-\	po	-ga	.	.	4g-/	.	8g-/	po	.	des	(8b-\L	.	8b-\	po	-ga	des	плa-	.
.	.	8A-\	-sza	.	.	8e-J\)	.	8e-\	sza-	nell	.	.	.	.	8g-/	sza-	.	.	8cc\J)	.	8cc\	sza-	nell	.	-вa-	.
8A-\	.	8A-\	fi	.	.	8d-\	Ha-	8d-\	-fi-	az-	.	.	8g-/	.	8g-/	-fi-	.	Ha	8b-\	.	8b-\	-fi-	az-	Ha-	-eтъ	.
!!LO:LB:g=original
=56	=56	=56	=56	=56	=56	=56	=56	=56	=56	=56	=56	=56	=56	=56	=56	=56	=56	=56	=56	=56	=56	=56	=56	=56	=56	=56
2.ryy	.	4.A-\	ro-	.	.	2.ryy	.	4.d-\	ro-	-zur-	-re-	.	2.ryy	.	4.g-/	-ro-	.	.	2.ryy	.	4.b-\	-ro-	-zur-	-re-	ти-	.
.	.	8A-\	-wym	.	.	.	.	8c\	-wym	-ro	-mes	.	.	.	8e-/	-wym	.	.	.	.	8a-/	-wym	-ro	-mes	-xo	.
.	.	8r	.	.	.	.	.	8r	.	.	.	.	.	.	8r	.	.	.	.	.	8r	.	.	.	.	.
.	.	8A-\	że-	.	.	.	.	8c\	że-	la	mit	.	.	.	8e-/	że-	.	.	.	.	8a-/	że-	la	mit	лe-	.
=57	=57	=57	=57	=57	=57	=57	=57	=57	=57	=57	=57	=57	=57	=57	=57	=57	=57	=57	=57	=57	=57	=57	=57	=57	=57	=57
*	*	*	*	*	*	*	*	*	*	*	*	*	*	*	*	*	*	*	*	*	*^	*	*	*	*	*
4A-\	.	4.A-\	-glu-	.	.	4c\	süs-	4.c\	-glu-	nu-	.	.	4g-/	.	4.g-/	-glu-	.	.	4ee-\	süs-	4.ee-\	4ee-/	-glu-	nu-	.	-бe-	.
8A-\	.	.	.	.	.	8c\	-ser	.	.	.	.	.	8g-/	.	.	.	.	.	8ee-\	-ser	.	8ee-/	.	.	.	.	.
8ryy	.	4A-\	-je	.	.	8ryy	.	8B-\L	-je	-be,	Lo-	.	8ryy	.	4g-/	-je	.	.	8ryy	.	8dd-\L	8ryy	-je	-be,	Lo-	.	.
4ryy	.	.	.	.	.	4ryy	.	8c\J	.	.	.	.	4ryy	.	.	.	.	.	4ryy	.	8ee-\J	4ryy	.	.	.	.	.
.	.	8A-\	prze-	.	.	.	.	8B-\	prze-	tran-	-ckŭng	.	.	.	8g-/	prze-	.	.	.	.	8dd-\	.	prze-	tran-	-ckung	-дeмъ	.
*	*	*	*	*	*	*	*	*	*	*	*	*	*	*	*	*	*	*	*	*	*v	*v	*	*	*	*	*
=58	=58	=58	=58	=58	=58	=58	=58	=58	=58	=58	=58	=58	=58	=58	=58	=58	=58	=58	=58	=58	=58	=58	=58	=58	=58	=58
2.ryy	.	4.E-\	-stwo-	.	.	2.ryy	.	4.B-\	-stwo-	-quil-	flim-	.	2.ryy	.	4.g-/	-stwo-	.	.	2.ryy	.	4.dd-\	-stwo-	-quil-	flim-	coн-	.
.	.	4A-\	-rze	.	.	.	.	4A-/	-rze	-lo	-mernd,	.	.	.	4g-/	-rze	.	.	.	.	4cc\	-rze	-lo	-mernd,	-нымъ	.
.	.	8r	.	.	.	.	.	8r	.	.	.	.	.	.	8r	.	.	.	.	.	8r	.	.	.	.	.
=59	=59	=59	=59	=59	=59	=59	=59	=59	=59	=59	=59	=59	=59	=59	=59	=59	=59	=59	=59	=59	=59	=59	=59	=59	=59	=59
!	!	!	!	!	!	!	!	!	!	!	!	!	!	!	!	!	!	!	!	!	!LO:SIC:v:l:s=ти-:4	!	!	!	!	!
2.ryy	.	[4A-\	je-	.	.	2.ryy	.	(4e-\	je-	.	In	.	2.ryy	.	[4g-/	je-	.	.	2.ryy	.	(4cc\	je-	co-	In	mи-	.
.	.	8A-\]	-den	.	.	.	.	8c\)	-den	.	.	.	.	.	8g-/]	-den	.	.	.	.	8ee-\)	-den	-me un	.	-xo	.
.	.	(4.B--^\	o-	.	.	.	.	(4.d-\	o-	.	dun-	.	.	.	[4.g-/	o-	.	.	.	.	[4.gg-^\	o-	-ci-	dun-	плa-	.
=60	=60	=60	=60	=60	=60	=60	=60	=60	=60	=60	=60	=60	=60	=60	=60	=60	=60	=60	=60	=60	=60	=60	=60	=60	=60	=60
4.ryy	.	4A-\)	.	.	.	4.ryy	.	4e-\)	.	.	.	.	4.ryy	.	4g-/]	.	.	.	4.ryy	.	4gg-\]	.	.	.	.	.
.	.	8A-\	-błok	.	.	.	.	8c\	-błok	.	-kel	.	.	.	8g-/	-błok	.	.	.	.	8ee-\	-błok	-gno	-kel	-вa-	.
4B--\	.	4.B--^\	jak	.	.	4d-\	blau-	4.d-\	jak	.	.	.	4g-/	.	4.g-/	jak	.	.	4gg-\	blau-	4.gg-^\	jak	co-	blau-	-eтъ	.
8B--\	.	.	.	.	.	8d-\	-en	.	.	.	.	.	8g-/	.	.	.	.	.	8gg-\	-en	.	.	.	-en	.	.
!!LO:PB:g=original
=61	=61	=61	=61	=61	=61	=61	=61	=61	=61	=61	=61	=61	=61	=61	=61	=61	=61	=61	=61	=61	=61	=61	=61	=61	=61	=61
4.ryy	.	4A-\	sen-	me	.	4.ryy	.	4e-\	sen-	.	Wei-	.	4.ryy	.	4g-/	sen-	.	.	4.ryy	.	4cc\	sen-	-me	Wei-	oб-	p
.	.	8A-\	-ny	un	.	.	.	8e-\	-ny	.	-ten	.	.	.	8g-/	-ny	.	.	.	.	8cc\	-ny	un	-ten	-лaкъ	.
8B--\	.	4B--\	ła-	ci-	.	8e-\	zieht	4e-\	ła-	.	.	.	8g-/	zieht	4g-/	ła-	.	.	8dd-\	zieht	4dd-\	ła-	ci-	.	плa-	>
8B--\	.	.	.	.	.	8e-\	ei-	.	.	.	.	.	8g-/	ei-	.	.	.	.	8dd-\	ei-	.	.	.	.	-вa-	.
8B--\	.	8B--\	-będź	-gno	.	8e-\	-ne	8e-\	-będź	.	.	.	8g-/	-ne	8g-/	-będź	.	.	8dd-\	-ne	8dd-\	-będź	-gno	.	-eтъ	.
=62	=62	=62	=62	=62	=62	=62	=62	=62	=62	=62	=62	=62	=62	=62	=62	=62	=62	=62	=62	=62	=62	=62	=62	=62	=62	=62
2.ryy	.	4B-\	na	co-	.	2.ryy	.	4e-\	na	.	Wol-	.	2.ryy	.	4g-/	na	.	.	2.ryy	.	4ddn\	na	co-	Wol-	ти-	.
.	.	8B-\	je-	-me un	.	.	.	8e-\	je-	.	-ke	.	.	.	8g-/	je-	.	.	.	.	8dd\	je-	-me un	-ke	.	.
.	.	4c-X\	-zio-	ci-	.	.	.	4A-/	-zio-	.	schim-	.	.	.	4g-/	-zio-	.	.	.	.	4ff\	-zio-	ci-	schim-	-xo	.
.	.	8C-X/	-rze,	-gno	.	.	.	8A-/	-rze	.	-mernd,	.	.	.	8g-/	-rze,	.	.	.	.	8ee-\	-rze,	-gno	-mernd,	лe-	.
=63	=63	=63	=63	=63	=63	=63	=63	=63	=63	=63	=63	=63	=63	=63	=63	=63	=63	=63	=63	=63	=63	=63	=63	=63	=63	=63
2.ryy	.	4.Cn/	sen-	come	ei-	2.ryy	.	(4A-/	sen-	co-	ei-	.	2.ryy	.	4.e-/	sen-	.	.	2.ryy	.	4.a-/	sen-	per	ei-	-бe-	.
.	.	.	.	.	.	.	.	8g-\	.	-me	.	.	.	.	.	.	.	.	.	.	.	.	.	.	.	.
.	.	4.D-\	-ny	un	-ne	.	.	8f\L	.	un	.	.	.	.	4.f/	-ny	.	.	.	.	4.b-\	-ny	un	-ne	-дeмъ	.
.	.	.	.	.	.	.	.	8e-\J)	.	bian-	.	.	.	.	.	.	.	.	.	.	.	.	.	.	.	.
.	.	.	.	.	.	.	.	8d-\	-ny	-co	-ne	.	.	.	.	.	.	.	.	.	.	.	.	.	.	.
=64	=64	=64	=64	=64	=64	=64	=64	=64	=64	=64	=64	=64	=64	=64	=64	=64	=64	=64	=64	=64	=64	=64	=64	=64	=64	=64
2.ryy	.	4.E-\	ła-	ci-	Wol-	2.ryy	.	[4.A-/	ła-	ci-	Wol-	.	2.ryy	.	4.g-/	ła-	.	.	2.ryy	.	4.cc\	ła-	la-	Wol-	coн-	.
.	.	4.F\	-będź	-gno	-ke	.	.	4A-/]	.	.	.	.	.	.	4.a-/	-będź	.	.	.	.	4.dd-\	-będź	-go	-ke	-нымъ лe-	.
.	.	.	.	.	.	.	.	8d-\	-będź	-gno	-ke	.	.	.	.	.	.	.	.	.	.	.	.	.	.	.
!!LO:LB:g=original
=65	=65	=65	=65	=65	=65	=65	=65	=65	=65	=65	=65	=65	=65	=65	=65	=65	=65	=65	=65	=65	=65	=65	=65	=65	=65	=65
*	*	*	*	*	*	*	*	*^	*	*	*	*	*	*	*^	*	*	*	*	*	*	*	*	*	*	*
2.ryy	.	(4.G-\	na	bian-	ei-	2.ryy	.	4d-\	4.ryy	sen-	per	ei-	.	2.ryy	.	(4g-/	4.ryy	na	per	ei-	2.ryy	.	(4.b-\	na	per	ei-	-бe-	.
.	.	.	.	.	.	.	.	8d-\	.	-ny	un	-ne	.	.	.	8dd-\	.	.	un	.	.	.	.	.	.	.	.	.
!	!	!	!	!	!	!	!	!LO:TX:t=P:problem:stem.color=red	!	!	!	!	!	!	!	!LO:TX:t=P:problem:stem.color=red	!	!	!	!	!	!	!	!	!	!	!	!
.	.	4.A-\	je-	-co	-ne	.	.	8d-/	4d-\	na	la-	Wol-	.	.	.	8cc-X/	8cc-\L	.	la-	.	.	.	8cc-X\L	.	un	.	.	.
!	!	!	!	!	!	!	!	!	!	!	!	!	!	!	!	!LO:TX:t=P:problem:stem.color=red	!	!	!	!	!	!	!	!	!	!	!	!
.	.	.	.	.	.	.	.	8d-/@	.	.	-go	.	.	.	.	8b-/)	8b-\J	.	-go	.	.	.	8b-\J)	.	.	.	.	.
!	!	!	!	!	!	!	!	!LO:TX:t=P:problem:stem.color=red	!	!	!	!	!	!	!	!	!	!	!	!	!	!	!	!	!	!	!	!
.	.	.	.	.	.	.	.	8d-/	8d-\	je-	sos-	-ke,	.	.	.	8a-/	8ryy	je-	sos-	-ne	.	.	8cc-\	je-	.	-ne	-дeмъ	.
=66	=66	=66	=66	=66	=66	=66	=66	=66	=66	=66	=66	=66	=66	=66	=66	=66	=66	=66	=66	=66	=66	=66	=66	=66	=66	=66	=66	=66
*	*	*	*	*	*	*	*	*	*	*	*	*	*	*	*	*	*	*	*	*	*	*	*^	*	*	*	*	*
4.ryy	.	4.An\)	-zio-	can-	Wol-	4.ryy	.	4.e-\	4.e-/	-zio-	-pin-	schwin-	.	4.ryy	.	4.g-/	4.g-\	-zio-	-pin-	Wol-	4.ryy	.	4.ccn\	4.ryy	-zio-	la-	Wol-	coн-	.
4B-\	-ke	4.B-\	-rze	-di-	.	4d-\	.	4.d-\	4d-/	-rze	-to,	-nernd,	.	4g-/	.	4.g-/	4g-\	-rze	-to,	-ke,	4dd-\	.	4dd-/	4.dd-\	-rze	-go	-ke,	-нымъ	.
8B-\	Ein	.	.	.	.	8d-\	.	.	8d-/	.	.	Ein	.	8g-/	.	.	8g-\	.	.	Ein	8dd-\	.	8dd-/@	.	.	sos-	Ein	cъ	.
*	*	*	*	*	*	*	*	*v	*v	*	*	*	*	*	*	*v	*v	*	*	*	*	*	*v	*v	*	*	*	*	*
=67	=67	=67	=67	=67	=67	=67	=67	=67	=67	=67	=67	=67	=67	=67	=67	=67	=67	=67	=67	=67	=67	=67	=67	=67	=67	=67
2.ryy	.	4.c-X\	pierś	-do	Schwan	[4.e-\	.	[4.e-\	pierś	can-	Schwan	.	2.ryy	.	4g-/	pierś	can-	Schwan	2.ryy	.	[4.ee-\	pierś	-pin-	Schwan	бѣ-	.
.	.	.	.	.	.	.	.	.	.	.	.	.	.	.	8b--/	ma	-di-	mit	.	.	.	.	.	.	.	.
.	.	4.cn\	ma	il	mit	4e-\]	.	4e-\]	.	.	.	.	.	.	8a-/L	bia-	-do	ros’-	.	.	4ee-\]	.	.	.	.	.
.	.	.	.	.	.	.	.	.	.	.	.	.	.	.	8gn/J	.	ha	.	.	.	.	.	.	.	.	.
.	.	.	.	.	.	8A-/	.	8A-/	ma	-di-	mit	.	.	.	8g-X/	-łą	il	-gen	.	.	8a-/	ma	-to	mit	-лoѝ	.
=68	=68	=68	=68	=68	=68	=68	=68	=68	=68	=68	=68	=68	=68	=68	=68	=68	=68	=68	=68	=68	=68	=68	=68	=68	=68	=68
*	*	*^	*	*	*	*	*	*^	*	*	*	*	*	*	*	*	*	*	*	*	*	*	*	*	*	*
!	!	!	!	!	!	!	!	!	!	!LO:TX:t=P:problem:stem.color=red	!	!	!	!	!	!	!	!	!	!	!	!	!	!	!	!	!	!
4d-\	.	4d-\	4.ryy	bia-	pet-	ros’-	8f\L	.	8f/	8f\L	bia-	-do	ros’-	гру-	8f/	.	(8f/L	-pierś	pet-	Schwin-	2.ryy	.	(8ff\L	bia-	can-	ros’-	гру-	.
!	!	!	!	!	!	!	!	!	!	!LO:TX:t=P:problem:stem.color=red	!	!	!	!	!	!	!	!	!	!	!	!	!	!	!	!	!	!
.	.	.	.	.	.	.	16e-\L	.	16e-/LL	16e-\L	.	ha	.	-дъю	8a-/	.	8a-/J)	.	.	-gen,	.	.	16ee-\L	.	.	.	.	.
!	!	!	!	!	!	!	!	!	!	!LO:TX:t=P:problem:stem.color=red	!	!	!	!	!	!	!	!	!	!	!	!	!	!	!	!	!	!
.	.	.	.	.	.	.	16d-\JJ	.	16d-/JJ	16d-\JJ	.	.	.	.	.	.	.	.	.	.	.	.	16dd-\	.	.	.	.	.
!	!	!	!	!	!	!	!	!	!	!LO:TX:t=P:problem:stem.color=red	!	!	!	!	!	!	!	!	!	!	!	!	!	!	!	!	!	!
8D-\	.	8D-\	.	-łą	-to	-gen	16c\LL	.	16c/LL	16c\LL	-łą	il	-gen	oнъ	8a-/	.	8a-/	a	-to	ein	.	.	16ee-\	.	.	.	.	.
!	!	!	!	!	!	!	!	!	!	!LO:TX:t=P:problem:stem.color=red	!	!	!	!	!	!	!	!	!	!	!	!	!	!	!	!	!	!
.	.	.	.	.	.	.	16c-X\JJ	.	16c-X/JJ	16c-\JJ	.	.	.	.	.	.	.	.	.	.	.	.	16ff\JJ	.	.	.	.	.
8D-\	.	4D-\	8D-/	zło-	ma	Schwin-	8B-/	.	8B-/L	8B-\	zło-	pet-	Schwin-	cъ зo-	4g-/	.	4g-/	zło-	ed	Schwan	.	.	4gg-\)	.	.	-gen,	.	.
8D-\	.	.	8D-/	.	.	-gen,	8A-/	.	8A-/J	8A-\	.	-to	-gen,	.	.	.	.	.	.	.	.	.	.	.	.	.	.	.
8G-\	.	8G-\	8G-/	-tem	il	ein	8G-/	.	8G-/	8G-\	-tem	ha il	ein	-лo-	8b-/	.	8b-/	-tem	il	mi[t]	.	.	8b-\	-łą,	-di-	ein	-дъю	.
!!LO:PB:g=original
=69	=69	=69	=69	=69	=69	=69	=69	=69	=69	=69	=69	=69	=69	=69	=69	=69	=69	=69	=69	=69	=69	=69	=69	=69	=69	=69	=69	=69
*	*	*	*	*	*	*	*	*	*	*	*	*	*	*	*	*	*^	*	*	*	*	*	*	*	*	*	*	*
2.ryy	.	8A-\L	4.ryy	ma-	fian-	Schwan	2.ryy	.	4A-/	4.ryy	ma-	fian-	Schwan	-ты-	2.ryy	.	4f/	4.ryy	ma-	fian-	ros’-	2.ryy	.	8dd-\L	ma-	-do	Schwan	.	.
.	.	8F\J	.	.	.	.	.	.	.	.	.	.	.	.	.	.	.	.	.	.	.	.	.	16ee-\L	.	ha	.	.	.
.	.	.	.	.	.	.	.	.	.	.	.	.	.	.	.	.	.	.	.	.	.	.	.	16dd-\JJ	.	.	.	.	.
.	.	8D-\	.	-lo-	-co	mit	.	.	8A-/	.	-lo-	-co	mit	.	.	.	8a-/	.	-lo-	-co	-gen,	.	.	16cc\LL	-lo-	il	mit	.	.
.	.	.	.	.	.	.	.	.	.	.	.	.	.	.	.	.	.	.	.	.	.	.	.	16dd-\JJ	.	.	.	.	.
!	!	!	!LO:TX:t=P:problem:stem.color=red	!	!	!	!	!	!	!	!	!	!	!	!	!	!	!LO:TX:t=P:problem:stem.color=red	!	!	!	!	!	!	!	!	!	!	!
.	.	8BB-/L	8BB-\	-wa-	D’o-	ros’-	.	.	4B-/	8B-\	-wa-	d’o-	ros’-	-ми	.	.	(8a-/L	8a-\	-wa-	d’o-	ros’-	.	.	4ee-\	-wa-	pet-	ros’-	.	.
!	!	!	!LO:TX:t=P:problem:stem.color=red	!	!	!	!	!	!	!	!	!	!	!	!	!	!	!LO:TX:t=P:problem:stem.color=red	!	!	!	!	!	!	!	!	!	!	!
.	.	8E-/J	8E-\	.	-ro	.	.	.	.	8B-\	.	-ro	.	.	.	.	8gn/J)	8gn\	.	-ro	.	.	.	.	.	.	.	.	.
!	!	!	!	!	!	!	!	!	!LO:SIC:v:l:s=кpa-:4	!	!	!	!	!	!	!	!	!	!	!	!	!	!	!	!	!	!	!	!
.	.	8AA-/	8ryy	-ne	Di-	-gen	.	.	8A-/	8A-\	-ne	di-	-gen	npa-	.	.	8g-X/	8ryy	-ne	ha	-gen	.	.	8a-/	-ne	-to	-gen	.	.
*	*	*v	*v	*	*	*	*	*	*v	*v	*	*	*	*	*	*	*v	*v	*	*	*	*	*	*	*	*	*	*	*
=70	=70	=70	=70	=70	=70	=70	=70	=70	=70	=70	=70	=70	=70	=70	=70	=70	=70	=70	=70	=70	=70	=70	=70	=70	=70	=70
2.ryy	.	[2.D-\	krań-	-prin-	Schwin-	2.ryy	.	[2.A-/	krań-	pin-	Schwin-	-я-	2.ryy	.	[2.f/	krań-	di-	Schwin-	2.ryy	.	[2.ff\	krań-	e	Schwin-	.	.
=71	=71	=71	=71	=71	=71	=71	=71	=71	=71	=71	=71	=71	=71	=71	=71	=71	=71	=71	=71	=71	=71	=71	=71	=71	=71	=71
2.ryy	.	4.D-\_	.	.	.	2.ryy	.	4.A-/_	.	.	.	.	2.ryy	.	4f/]	.	-pin-	-gen,	2.ryy	.	4ff\]	.	.	-gen	.	.
.	.	.	.	.	.	.	.	.	.	.	.	.	.	.	8d-/	-ce,	-to	durchs	.	.	8f/	-ce	il	durchs	.	.
.	.	4D-\]	.	.	-gen,	.	.	4A-/]	.	.	-gen,	.	.	.	4d-/	ma-	ha	blin-	.	.	4f/	ma-	fian-	blin-	.	.
.	.	8D-\	-ce	-to	durchs	.	.	8A-/	-ce	-to	durchs	-ми	.	.	8d-/	-lo-	il	-ken-	.	.	8f/	-lo-	-co	-ken-	.	.
=72	=72	=72	=72	=72	=72	=72	=72	=72	=72	=72	=72	=72	=72	=72	=72	=72	=72	=72	=72	=72	=72	=72	=72	=72	=72	=72
2.ryy	.	4D-\	zło-	ha	blin-	2.ryy	.	4A-/	zło-	ha	blin-	cъ зo-	2.ryy	.	[4.d-/	-wa-	fian-	-de	2.ryy	.	[4.a-/	-wa-	lut-	-de	.	.
.	.	8D-\	-tem	il	-ken-	.	.	8A-/	-tem	il	-ken-	-лo-	.	.	.	.	.	.	.	.	.	.	.	.	.	.
!	!	!	!	!	!	!	!	!LO:SIC:v:l:s=-ты-:4	!	!	!	!	!	!	!	!	!	!	!	!	!	!	!	!	!	!
.	.	4D-\	ma-	fian-	-de	.	.	4A-/	ma-	fian-	-de	-mы-	.	.	4d-/]	.	.	.	.	.	4a-/]	.	.	.	.	.
.	.	8D-\	-lo-	-co	Ge-	.	.	8A-/	-lo-	-co	Ge-	.	.	.	8d-/	-ne	-co	durchs	.	.	8f/	-ne	-to	durchs	.	.
!!LO:LB:g=original
=73	=73	=73	=73	=73	=73	=73	=73	=73	=73	=73	=73	=73	=73	=73	=73	=73	=73	=73	=73	=73	=73	=73	=73	=73	=73	=73
2.ryy	.	[4.D-\	-wa-	d’o-	-wim-	2.ryy	.	[4.A-/	-wa-	d’o-	-wim-	.	2.ryy	.	4d-/	ma-	D’o-	blin-	2.ryy	.	4f/	ma-	d’o-	blin-	.	.
.	.	.	.	.	.	.	.	.	.	.	.	.	.	.	8d-/	-lo-	-ro	-ken-	.	.	8f/	-lo-	-ro	-ken-	.	.
.	.	4D-\]	.	-ro	-mel,	.	.	4A-/]	.	-ro	-mel,	-ми	.	.	4d-/	-wa-	ha	-de	.	.	4f/	-wa-	ha	-de	.	.
!	!	!	!	!	!	!	!	!LO:SIC:v:l:s=кpa-:4	!	!	!	!	!	!	!	!	!	!	!	!	!	!	!	!	!	!
.	.	8D-\	ne	Di-	Ge-	.	.	8A-/	-ne	di-	Ge-	npa-	.	.	8d-/	-ne	di-	Ge-	.	.	8f/	-ne	Di-	Ge-	.	.
=74	=74	=74	=74	=74	=74	=74	=74	=74	=74	=74	=74	=74	=74	=74	=74	=74	=74	=74	=74	=74	=74	=74	=74	=74	=74	=74
2.ryy	.	[2.D-\	krań-	-pin-	-wim-	2.ryy	.	[2.A-/	krań-	-pin-	-wim-	-я-	2.ryy	.	[2.a-/	krań-	-pin-	-wim-	2.ryy	.	[2.a-/	krań-	-pin-	-wim-	.	.
=75	=75	=75	=75	=75	=75	=75	=75	=75	=75	=75	=75	=75	=75	=75	=75	=75	=75	=75	=75	=75	=75	=75	=75	=75	=75	=75
2.ryy	.	2.D-\]	.	.	.	2.ryy	.	2.A-/]	.	.	.	.	2.ryy	.	2.a-/]	.	.	.	2.ryy	.	2.a-/]	.	.	.	.	.
=76	=76	=76	=76	=76	=76	=76	=76	=76	=76	=76	=76	=76	=76	=76	=76	=76	=76	=76	=76	=76	=76	=76	=76	=76	=76	=76
2.ryy	.	4D-\	-ce.	-to!	-mel.	2.ryy	.	4d-\	-ce.	-to.	-mel.	-ми!	2.ryy	.	4d-/	-ce.	-to.	-mel.	2.ryy	.	4d-/	-ce,	-to.	-mel.	.	.
.	.	8r	.	.	.	.	.	8r	.	.	.	.	.	.	8r	.	.	.	.	.	8r	.	.	.	.	.
.	.	4r	.	.	.	.	.	4r	.	.	.	.	.	.	4r	.	.	.	.	.	4r	.	.	.	.	.
.	.	8r	.	.	.	.	.	8r	.	.	.	.	.	.	8r	.	.	.	.	.	8r	.	.	.	.	.
=77	=77	=77	=77	=77	=77	=77	=77	=77	=77	=77	=77	=77	=77	=77	=77	=77	=77	=77	=77	=77	=77	=77	=77	=77	=77	=77
!	!	!LO:TX:a:t=2.	!	!	!	!	!	!LO:TX:a:t=2.	!	!	!	!	!	!	!LO:TX:a:t=2.	!	!	!	!	!	!LO:TX:a:t=2.	!	!	!	!	!
2.ryy	.	2.r	.	.	.	2.ryy	.	2.r	.	.	.	.	2.ryy	.	2.r	.	.	.	2.ryy	.	2.r	.	.	.	.	.
=78	=78	=78	=78	=78	=78	=78	=78	=78	=78	=78	=78	=78	=78	=78	=78	=78	=78	=78	=78	=78	=78	=78	=78	=78	=78	=78
2.ryy	.	2.r	.	.	.	2.ryy	.	2.r	.	.	.	.	2.ryy	.	2.r	.	.	.	2.ryy	.	2.r	.	.	.	.	.
==	==	==	==	==	==	==	==	==	==	==	==	==	==	==	==	==	==	==	==	==	==	==	==	==	==	==
*-	*-	*-	*-	*-	*-	*-	*-	*-	*-	*-	*-	*-	*-	*-	*-	*-	*-	*-	*-	*-	*-	*-	*-	*-	*-	*-
!!!system-decoration: (<g1><g2><g3><g4>)
!!!ENC: Katarzyna Serwa
!!!END: 2021-08-26
!!!RDF**kern: @ = marked note, color=red
!!!RDF**kern: > = above
!!!RDF**kern: < = below
!!!RDF**dynam: > = dim
!!!EED: Andrzej Borzym
!!!EST: 2021-10-04
